svgs/monclubsportif.svg

<svg width="192" height="192" viewBox="0 0 192 192" fill="none" xmlns="http://www.w3.org/2000/svg"><path d="M27.6331 168.468L66.6261 118.205C68.5359 115.743 72.0123 115.153 74.6277 116.846L97.9851 131.969C111.753 143.247 107.401 162.784 83.0621 169.001M46.8201 96.5349C40.6021 80.1949 59.9661 59.0579 75.0671 69.6259L135.826 111.454C148.706 120.69 171.179 103.018 162.474 83.7469" stroke="black" stroke-width="14" stroke-miterlimit="6" stroke-linecap="round" stroke-linejoin="round"/><path d="M127.721 58.5319C137.535 58.5319 145.491 50.576 145.491 40.7619C145.491 30.9478 137.535 22.9919 127.721 22.9919C117.907 22.9919 109.951 30.9478 109.951 40.7619C109.951 50.576 117.907 58.5319 127.721 58.5319Z" stroke="black" stroke-width="14" stroke-miterlimit="6" stroke-linecap="round" stroke-linejoin="round"/></svg>

<svg xmlns="http://www.w3.org/2000/svg" width="192" height="192" fill="none" viewBox="0 0 192 192"><path stroke="#000" stroke-linecap="round" stroke-linejoin="round" stroke-miterlimit="6" stroke-width="14" d="m27.633 168.468 38.993-50.263a6 6 0 0 1 8.002-1.359l23.357 15.123c13.768 11.278 9.416 30.815-14.923 37.032M46.82 96.535c-6.218-16.34 13.146-37.477 28.247-26.91l60.759 41.829c12.88 9.236 35.353-8.436 26.648-27.707m-34.753-25.215c9.814 0 17.77-7.956 17.77-17.77s-7.956-17.77-17.77-17.77-17.77 7.956-17.77 17.77 7.956 17.77 17.77 17.77"/></svg>
